teeny/solid/message-tick.svg

<svg width="15" height="15" viewBox="0 0 15 15" fill="none" xmlns="http://www.w3.org/2000/svg">
<path fill-rule="evenodd" clip-rule="evenodd" d="M0 1.49935C0 0.670259 0.671165 0 1.5 0H13.5C14.3288 0 15 0.670259 15 1.49935V10.4935C15 11.3226 14.3288 11.9928 13.5 11.9928H9.7675L7.91594 14.7683C7.8232 14.9074 7.66712 14.9909 7.5 14.9909C7.33288 14.9909 7.1768 14.9074 7.08406 14.7683L5.2325 11.9928H1.5C0.671165 11.9928 0 11.3226 0 10.4935V1.49935ZM7.02439 8.73149L10.8763 4.32928L10.1237 3.67078L6.97568 7.26857L5.35359 5.64648L4.64648 6.35358L7.02439 8.73149Z" fill="black"/>
</svg>

<svg viewBox="0 0 15 15" xmlns="http://www.w3.org/2000/svg"><path fill-rule="evenodd" d="M0 1.49c0-.83.67-1.5 1.5-1.5h12c.82 0 1.5.67 1.5 1.49v8.99c0 .82-.68 1.49-1.5 1.49H9.76L7.9 14.73c-.1.13-.25.22-.42.22 -.17 0-.33-.09-.42-.23L5.2 11.94H1.46c-.83 0-1.5-.68-1.5-1.5v-9Zm7.02 7.23l3.85-4.41 -.76-.66 -3.15 3.59 -1.63-1.63 -.71.7 2.37 2.37Z"/></svg>
